/* XPM */
static char	*collect_xpm[] = {
"64 64 4 1"
"a	c #0C0A16"
"b	c #FFA500"
"c	c #FFD700"
"d	c #FFFAC8"
"aaaaaaaaaaaaaaaabbbbbbbbbbbbbbbbbbbbbbbbbbbbbbbbaaaaaaaaaaaaaaaa"
"aaaaaaaaaaaaaaaabbbbbbbbbbbbbbbbbbbbbbbbbbbbbbbbaaaaaaaaaaaaaaaa"
"aaaaaaaaaaaaaaaabbbbbbbbbbbbbbbbbbbbbbbbbbbbbbbbaaaaaaaaaaaaaaaa"
"aaaaaaaaaaaaaaaabbbbbbbbbbbbbbbbbbbbbbbbbbbbbbbbaaaaaaaaaaaaaaaa"
"aaaaaaaaaaaabbbbbbbbbbbbccccccccccccbbbbbbbbbbbbaaaaaaaaaaaaaaaa"
"aaaaaaaaaaaabbbbbbbbbbbbccccccccccccbbbbbbbbbbbbaaaaaaaaaaaaaaaa"
"aaaaaaaaaaaabbbbbbbbbbbbccccccccccccbbbbbbbbbbbbaaaaaaaaaaaaaaaa"
"aaaaaaaaaaaabbbbbbbbbbbbccccccccccccbbbbbbbbbbbbaaaaaaaaaaaaaaaa"
"aaaaaaaabbbbbbbbccccccccccccccccccccccccccccbbbbbbbbaaaaaaaaaaaa"
"aaaaaaaabbbbbbbbccccccccccccccccccccccccccccbbbbbbbbaaaaaaaaaaaa"
"aaaaaaaabbbbbbbbccccccccccccccccccccccccccccbbbbbbbbaaaaaaaaaaaa"
"aaaaaaaabbbbbbbbccccccccccccccccccccccccccccbbbbbbbbaaaaaaaaaaaa"
"aaaaaaaabbbbccccccccccccddddddddccccccccccccccccbbbbaaaaaaaa"
"aaaaaaaabbbbccccccccccccddddddddccccccccccccccccbbbbaaaaaaaa"
"aaaaaaaabbbbccccccccccccddddddddccccccccccccccccbbbbaaaaaaaa"
"aaaaaaaabbbbccccccccccccddddddddccccccccccccccccbbbbaaaaaaaa"
"aaaaaaaabbbbccccccccddddddddddddddddccccccccccccbbbbaaaaaaaa"
"aaaaaaaabbbbccccccccddddddddddddddddccccccccccccbbbbaaaaaaaa"
"aaaaaaaabbbbccccccccddddddddddddddddccccccccccccbbbbaaaaaaaa"
"aaaaaaaabbbbccccccccddddddddddddddddccccccccccccbbbbaaaaaaaa"
"aaaaaaaabbbbccccccccddddddddddddddddccccccccccccbbbbaaaaaaaa"
"aaaaaaaabbbbccccccccddddddddddddddddccccccccccccbbbbaaaaaaaa"
"aaaaaaaabbbbccccccccddddddddddddddddccccccccccccbbbbaaaaaaaa"
"aaaaaaaabbbbccccccccddddddddddddddddccccccccccccbbbbaaaaaaaa"
"aaaaaaaabbbbbbbbccccccccccccccccccccccccccccbbbbbbbbaaaaaaaa"
"aaaaaaaabbbbbbbbccccccccccccccccccccccccccccbbbbbbbbaaaaaaaa"
"aaaaaaaabbbbbbbbccccccccccccccccccccccccccccbbbbbbbbaaaaaaaa"
"aaaaaaaabbbbbbbbccccccccccccccccccccccccccccbbbbbbbbaaaaaaaa"
"aaaaaaaaaaaabbbbbbbbbbbbccccccccccccbbbbbbbbbbbbaaaaaaaaaaaaaaaa"
"aaaaaaaaaaaabbbbbbbbbbbbccccccccccccbbbbbbbbbbbbaaaaaaaaaaaaaaaa"
"aaaaaaaaaaaabbbbbbbbbbbbccccccccccccbbbbbbbbbbbbaaaaaaaaaaaaaaaa"
"aaaaaaaaaaaabbbbbbbbbbbbccccccccccccbbbbbbbbbbbbaaaaaaaaaaaaaaaa"
"aaaaaaaaaaaaaaaabbbbbbbbbbbbbbbbbbbbbbbbbbbbbbbbaaaaaaaaaaaaaaaa"
"aaaaaaaaaaaaaaaabbbbbbbbbbbbbbbbbbbbbbbbbbbbbbbbaaaaaaaaaaaaaaaa"
"aaaaaaaaaaaaaaaabbbbbbbbbbbbbbbbbbbbbbbbbbbbbbbbaaaaaaaaaaaaaaaa"
"aaaaaaaaaaaaaaaabbbbbbbbbbbbbbbbbbbbbbbbbbbbbbbbaaaaaaaaaaaaaaaa"
"aaaaaaaaaaaaaaaaaaaaaaaaaaaaaaaaaaaaaaaaaaaaaaaaaaaaaaaaaaaaaaaa"
"aaaaaaaaaaaaaaaaaaaaaaaaaaaaaaaaaaaaaaaaaaaaaaaaaaaaaaaaaaaaaaaa"
"aaaaaaaaaaaaaaaaaaaaaaaaaaaaaaaaaaaaaaaaaaaaaaaaaaaaaaaaaaaaaaaa"
"aaaaaaaaaaaaaaaaaaaaaaaaaaaaaaaaaaaaaaaaaaaaaaaaaaaaaaaaaaaaaaaa"
"aaaaaaaaaaaaaaaaaaaaaaaaaaaaaaaaaaaaaaaaaaaaaaaaaaaaaaaaaaaaaaaa"
"aaaaaaaaaaaaaaaaaaaaaaaaaaaaaaaaaaaaaaaaaaaaaaaaaaaaaaaaaaaaaaaa"
"aaaaaaaaaaaaaaaaaaaaaaaaaaaaaaaaaaaaaaaaaaaaaaaaaaaaaaaaaaaaaaaa"
"aaaaaaaaaaaaaaaaaaaaaaaaaaaaaaaaaaaaaaaaaaaaaaaaaaaaaaaaaaaaaaaa"
"aaaaaaaaaaaaaaaaaaaaaaaaaaaaaaaaaaaaaaaaaaaaaaaaaaaaaaaaaaaaaaaa"
"aaaaaaaaaaaaaaaaaaaaaaaaaaaaaaaaaaaaaaaaaaaaaaaaaaaaaaaaaaaaaaaa"
"aaaaaaaaaaaaaaaaaaaaaaaaaaaaaaaaaaaaaaaaaaaaaaaaaaaaaaaaaaaaaaaa"
"aaaaaaaaaaaaaaaaaaaaaaaaaaaaaaaaaaaaaaaaaaaaaaaaaaaaaaaaaaaaaaaa"
"aaaaaaaaaaaaaaaaaaaaaaaaaaaaaaaaaaaaaaaaaaaaaaaaaaaaaaaaaaaaaaaa"
"aaaaaaaaaaaaaaaaaaaaaaaaaaaaaaaaaaaaaaaaaaaaaaaaaaaaaaaaaaaaaaaa"
"aaaaaaaaaaaaaaaaaaaaaaaaaaaaaaaaaaaaaaaaaaaaaaaaaaaaaaaaaaaaaaaa"
"aaaaaaaaaaaaaaaaaaaaaaaaaaaaaaaaaaaaaaaaaaaaaaaaaaaaaaaaaaaaaaaa"
"aaaaaaaaaaaaaaaaaaaaaaaaaaaaaaaaaaaaaaaaaaaaaaaaaaaaaaaaaaaaaaaa"
"aaaaaaaaaaaaaaaaaaaaaaaaaaaaaaaaaaaaaaaaaaaaaaaaaaaaaaaaaaaaaaaa"
"aaaaaaaaaaaaaaaaaaaaaaaaaaaaaaaaaaaaaaaaaaaaaaaaaaaaaaaaaaaaaaaa"
"aaaaaaaaaaaaaaaaaaaaaaaaaaaaaaaaaaaaaaaaaaaaaaaaaaaaaaaaaaaaaaaa"
"aaaaaaaaaaaaaaaaaaaaaaaaaaaaaaaaaaaaaaaaaaaaaaaaaaaaaaaaaaaaaaaa"
"aaaaaaaaaaaaaaaaaaaaaaaaaaaaaaaaaaaaaaaaaaaaaaaaaaaaaaaaaaaaaaaa"
"aaaaaaaaaaaaaaaaaaaaaaaaaaaaaaaaaaaaaaaaaaaaaaaaaaaaaaaaaaaaaaaa"
"aaaaaaaaaaaaaaaaaaaaaaaaaaaaaaaaaaaaaaaaaaaaaaaaaaaaaaaaaaaaaaaa"
"aaaaaaaaaaaaaaaaaaaaaaaaaaaaaaaaaaaaaaaaaaaaaaaaaaaaaaaaaaaaaaaa"
"aaaaaaaaaaaaaaaaaaaaaaaaaaaaaaaaaaaaaaaaaaaaaaaaaaaaaaaaaaaaaaaa"
"aaaaaaaaaaaaaaaaaaaaaaaaaaaaaaaaaaaaaaaaaaaaaaaaaaaaaaaaaaaaaaaa"
"aaaaaaaaaaaaaaaaaaaaaaaaaaaaaaaaaaaaaaaaaaaaaaaaaaaaaaaaaaaaaaaa"
};