/* XPM */
static char	*collect2_xpm[] = {
"64 64 4 1"
"a	c #0C0A16"
"b	c #FFA500"
"c	c #FFD700"
"d	c #FFFAC8"
"aaaaaaaaaaaabbbbbbbbbbbbbbbbbbbbbbbbbbbbbbbbbbbbbbbbaaaaaaaaaaaa"
"aaaaaaaaaaaabbbbbbbbbbbbbbbbbbbbbbbbbbbbbbbbbbbbbbbbaaaaaaaaaaaa"
"aaaaaaaaaaaabbbbbbbbbbbbbbbbbbbbbbbbbbbbbbbbbbbbbbbbaaaaaaaaaaaa"
"aaaaaaaaaaaabbbbbbbbbbbbbbbbbbbbbbbbbbbbbbbbbbbbbbbbaaaaaaaaaaaa"
"aaaaaaaabbbbbbbbccccccccccccccccccccccccccccbbbbbbbbaaaaaaaa"
"aaaaaaaabbbbbbbbccccccccccccccccccccccccccccbbbbbbbbaaaaaaaa"
"aaaaaaaabbbbbbbbccccccccccccccccccccccccccccbbbbbbbbaaaaaaaa"
"aaaaaaaabbbbbbbbccccccccccccccccccccccccccccbbbbbbbbaaaaaaaa"
"aaaabbbbbbbbccccccccccccddddddddddddccccccccccccbbbbbbbbaaaa"
"aaaabbbbbbbbccccccccccccddddddddddddccccccccccccbbbbbbbbaaaa"
"aaaabbbbbbbbccccccccccccddddddddddddccccccccccccbbbbbbbbaaaa"
"aaaabbbbbbbbccccccccccccddddddddddddccccccccccccbbbbbbbbaaaa"
"aaaabbbbccccccccccccddddddddddddddddddddccccccccccccbbbbaaaa"
"aaaabbbbccccccccccccddddddddddddddddddddccccccccccccbbbbaaaa"
"aaaabbbbccccccccccccddddddddddddddddddddccccccccccccbbbbaaaa"
"aaaabbbbccccccccccccddddddddddddddddddddccccccccccccbbbbaaaa"
"aaaabbbbccccccccddddddddddddddddddddddddccccccccccccbbbbaaaa"
"aaaabbbbccccccccddddddddddddddddddddddddccccccccccccbbbbaaaa"
"aaaabbbbccccccccddddddddddddddddddddddddccccccccccccbbbbaaaa"
"aaaabbbbccccccccddddddddddddddddddddddddccccccccccccbbbbaaaa"
"aaaabbbbccccccccddddddddddddddddddddddddccccccccccccbbbbaaaa"
"aaaabbbbccccccccddddddddddddddddddddddddccccccccccccbbbbaaaa"
"aaaabbbbccccccccddddddddddddddddddddddddccccccccccccbbbbaaaa"
"aaaabbbbccccccccddddddddddddddddddddddddccccccccccccbbbbaaaa"
"aaaabbbbccccccccccccddddddddddddddddddddccccccccccccbbbbaaaa"
"aaaabbbbccccccccccccddddddddddddddddddddccccccccccccbbbbaaaa"
"aaaabbbbccccccccccccddddddddddddddddddddccccccccccccbbbbaaaa"
"aaaabbbbccccccccccccddddddddddddddddddddccccccccccccbbbbaaaa"
"aaaaaaaabbbbbbbbccccccccccccccccccccccccccccbbbbbbbbaaaaaaaa"
"aaaaaaaabbbbbbbbccccccccccccccccccccccccccccbbbbbbbbaaaaaaaa"
"aaaaaaaabbbbbbbbccccccccccccccccccccccccccccbbbbbbbbaaaaaaaa"
"aaaaaaaabbbbbbbbccccccccccccccccccccccccccccbbbbbbbbaaaaaaaa"
"aaaaaaaaaaaabbbbbbbbbbbbbbbbbbbbbbbbbbbbbbbbbbbbbbbbaaaaaaaaaaaa"
"aaaaaaaaaaaabbbbbbbbbbbbbbbbbbbbbbbbbbbbbbbbbbbbbbbbaaaaaaaaaaaa"
"aaaaaaaaaaaabbbbbbbbbbbbbbbbbbbbbbbbbbbbbbbbbbbbbbbbaaaaaaaaaaaa"
"aaaaaaaaaaaabbbbbbbbbbbbbbbbbbbbbbbbbbbbbbbbbbbbbbbbaaaaaaaaaaaa"
"aaaaaaaaaaaaaaaaaaaaaaaaaaaaaaaaaaaaaaaaaaaaaaaaaaaaaaaaaaaaaaaa"
"aaaaaaaaaaaaaaaaaaaaaaaaaaaaaaaaaaaaaaaaaaaaaaaaaaaaaaaaaaaaaaaa"
"aaaaaaaaaaaaaaaaaaaaaaaaaaaaaaaaaaaaaaaaaaaaaaaaaaaaaaaaaaaaaaaa"
"aaaaaaaaaaaaaaaaaaaaaaaaaaaaaaaaaaaaaaaaaaaaaaaaaaaaaaaaaaaaaaaa"
"aaaaaaaaaaaaaaaaaaaaaaaaaaaaaaaaaaaaaaaaaaaaaaaaaaaaaaaaaaaaaaaa"
"aaaaaaaaaaaaaaaaaaaaaaaaaaaaaaaaaaaaaaaaaaaaaaaaaaaaaaaaaaaaaaaa"
"aaaaaaaaaaaaaaaaaaaaaaaaaaaaaaaaaaaaaaaaaaaaaaaaaaaaaaaaaaaaaaaa"
"aaaaaaaaaaaaaaaaaaaaaaaaaaaaaaaaaaaaaaaaaaaaaaaaaaaaaaaaaaaaaaaa"
"aaaaaaaaaaaaaaaaaaaaaaaaaaaaaaaaaaaaaaaaaaaaaaaaaaaaaaaaaaaaaaaa"
"aaaaaaaaaaaaaaaaaaaaaaaaaaaaaaaaaaaaaaaaaaaaaaaaaaaaaaaaaaaaaaaa"
"aaaaaaaaaaaaaaaaaaaaaaaaaaaaaaaaaaaaaaaaaaaaaaaaaaaaaaaaaaaaaaaa"
"aaaaaaaaaaaaaaaaaaaaaaaaaaaaaaaaaaaaaaaaaaaaaaaaaaaaaaaaaaaaaaaa"
"aaaaaaaaaaaaaaaaaaaaaaaaaaaaaaaaaaaaaaaaaaaaaaaaaaaaaaaaaaaaaaaa"
"aaaaaaaaaaaaaaaaaaaaaaaaaaaaaaaaaaaaaaaaaaaaaaaaaaaaaaaaaaaaaaaa"
"aaaaaaaaaaaaaaaaaaaaaaaaaaaaaaaaaaaaaaaaaaaaaaaaaaaaaaaaaaaaaaaa"
"aaaaaaaaaaaaaaaaaaaaaaaaaaaaaaaaaaaaaaaaaaaaaaaaaaaaaaaaaaaaaaaa"
"aaaaaaaaaaaaaaaaaaaaaaaaaaaaaaaaaaaaaaaaaaaaaaaaaaaaaaaaaaaaaaaa"
"aaaaaaaaaaaaaaaaaaaaaaaaaaaaaaaaaaaaaaaaaaaaaaaaaaaaaaaaaaaaaaaa"
"aaaaaaaaaaaaaaaaaaaaaaaaaaaaaaaaaaaaaaaaaaaaaaaaaaaaaaaaaaaaaaaa"
"aaaaaaaaaaaaaaaaaaaaaaaaaaaaaaaaaaaaaaaaaaaaaaaaaaaaaaaaaaaaaaaa"
"aaaaaaaaaaaaaaaaaaaaaaaaaaaaaaaaaaaaaaaaaaaaaaaaaaaaaaaaaaaaaaaa"
"aaaaaaaaaaaaaaaaaaaaaaaaaaaaaaaaaaaaaaaaaaaaaaaaaaaaaaaaaaaaaaaa"
"aaaaaaaaaaaaaaaaaaaaaaaaaaaaaaaaaaaaaaaaaaaaaaaaaaaaaaaaaaaaaaaa"
"aaaaaaaaaaaaaaaaaaaaaaaaaaaaaaaaaaaaaaaaaaaaaaaaaaaaaaaaaaaaaaaa"
"aaaaaaaaaaaaaaaaaaaaaaaaaaaaaaaaaaaaaaaaaaaaaaaaaaaaaaaaaaaaaaaa"
"aaaaaaaaaaaaaaaaaaaaaaaaaaaaaaaaaaaaaaaaaaaaaaaaaaaaaaaaaaaaaaaa"
"aaaaaaaaaaaaaaaaaaaaaaaaaaaaaaaaaaaaaaaaaaaaaaaaaaaaaaaaaaaaaaaa"
"aaaaaaaaaaaaaaaaaaaaaaaaaaaaaaaaaaaaaaaaaaaaaaaaaaaaaaaaaaaaaaaa"
};