/* XPM */
static char *enemy_xpm[] = {
"64 64 5 1",
"  c None",
". c #E74C3C",
"o c #922B21",
"O c #FFFFFF",
"@ c #1B1B1B",
"                                                                ",
"                                                                ",
"                                                                ",
"                                                                ",
"                                                                ",
"                                                                ",
"                                                                ",
"                                                                ",
"                                                                ",
"                                                                ",
"                                o                               ",
"                         ooooooooooooooo                        ",
"                      ooooooooooooooooooooo                     ",
"                   oooooooo...........oooooooo                  ",
"                  oooooo.................oooooo                 ",
"                ooooo.......................ooooo               ",
"               oooo...........................oooo              ",
"             ooooo.............................ooooo            ",
"            oooo.................................oooo           ",
"           oooo...................................oooo          ",
"           ooo.....................................ooo          ",
"          ooo.......................................ooo         ",
"         ooo.........................................ooo        ",
"         ooo.........................................ooo        ",
"        ooo...........................................ooo       ",
"       oooo............O.................O............oooo      ",
"       ooo..........OOOOOOO...........OOOOOOO..........ooo      ",
"       ooo.........OOOOOOOOO.........OOOOOOOOO.........ooo      ",
"      ooo..........OOOO@OOOO.........OOOO@OOOO..........ooo     ",
"      ooo..........OOO@@@OOO.........OOO@@@OOO..........ooo     ",
"      ooo.........OOO@@@@@OOO.......OOO@@@@@OOO.........ooo     ",
"      ooo..........OOO@@@OOO.........OOO@@@OOO..........ooo     ",
"      oo...........OOOO@OOOO.........OOOO@OOOO...........oo     ",
"      oo...........OOOOOOOOO.........OOOOOOOOO...........oo     ",
"     ooo............OOOOOOO...........OOOOOOO............ooo    ",
"      oo...............O.................O...............oo     ",
"      oo.................................................oo     ",
"      ooo...............................................ooo     ",
"      ooo...............................................ooo     ",
"      ooo...............................................ooo     ",
"      ooo...............................................ooo     ",
"       ooo.............................................ooo      ",
"       ooo.............................................ooo      ",
"       oooo...........................................oooo      ",
"        ooo................@@@@@@@@@@@................ooo       ",
"         ooo..............@...........@..............ooo        ",
"         ooo.........................................ooo        ",
"          ooo.......................................ooo         ",
"           ooo.....................................ooo          ",
"           oooo...................................oooo          ",
"            oooo.................................oooo           ",
"             ooooo.............................ooooo            ",
"               oooo...........................oooo              ",
"                ooooo.......................ooooo               ",
"                  oooooo.................oooooo                 ",
"                   oooooooo...........oooooooo                  ",
"                      .....................                     ",
"                         ...............                        ",
"                                .                               ",
"                                                                ",
"                                                                ",
"                                                                ",
"                                                                ",
"                                                                "
};
