/* XPM */
static char	*exit_xpm[] = {
"64 64 5 1"
"a	c #0C0A16"
"b	c #4A008F"
"c	c #9B59B6"
"d	c #E8DAEF"
"e	c #FFFFFF"
"aaaaaaaaaaaaaaaaaaaaaaaabbbbbbbbbbbbbbbbaaaaaaaaaaaaaaaaaaaaaaaa"
"aaaaaaaaaaaaaaaaaaaaaaaabbbbbbbbbbbbbbbbaaaaaaaaaaaaaaaaaaaaaaaa"
"aaaaaaaaaaaaaaaaaaaaaaaabbbbbbbbbbbbbbbbaaaaaaaaaaaaaaaaaaaaaaaa"
"aaaaaaaaaaaaaaaaaaaaaaaabbbbbbbbbbbbbbbbaaaaaaaaaaaaaaaaaaaaaaaa"
"aaaaaaaaaaaaaaaabbbbbbbbccccccccccccccccbbbbbbbbaaaaaaaaaaaaaaaa"
"aaaaaaaaaaaaaaaabbbbbbbbccccccccccccccccbbbbbbbbaaaaaaaaaaaaaaaa"
"aaaaaaaaaaaaaaaabbbbbbbbccccccccccccccccbbbbbbbbaaaaaaaaaaaaaaaa"
"aaaaaaaaaaaaaaaabbbbbbbbccccccccccccccccbbbbbbbbaaaaaaaaaaaaaaaa"
"aaaaaaaaaaaabbbbccccccccddddddddddddddddccccccccbbbbaaaaaaaaaaaa"
"aaaaaaaaaaaabbbbccccccccddddddddddddddddccccccccbbbbaaaaaaaaaaaa"
"aaaaaaaaaaaabbbbccccccccddddddddddddddddccccccccbbbbaaaaaaaaaaaa"
"aaaaaaaaaaaabbbbccccccccddddddddddddddddccccccccbbbbaaaaaaaaaaaa"
"aaaaaaaabbbbccccccccddddddddddddddddddddddddccccccccbbbbaaaaaaaa"
"aaaaaaaabbbbccccccccddddddddddddddddddddddddccccccccbbbbaaaaaaaa"
"aaaaaaaabbbbccccccccddddddddddddddddddddddddccccccccbbbbaaaaaaaa"
"aaaaaaaabbbbccccccccddddddddddddddddddddddddccccccccbbbbaaaaaaaa"
"aaaabbbbccccccccddddddddddddddddddddddddddddddddccccccccbbbbaaaa"
"aaaabbbbccccccccddddddddddddddddddddddddddddddddccccccccbbbbaaaa"
"aaaabbbbccccccccddddddddddddddddddddddddddddddddccccccccbbbbaaaa"
"aaaabbbbccccccccddddddddddddddddddddddddddddddddccccccccbbbbaaaa"
"aaaabbbbccccddddddddddddddddddddddddddddddddddddddddccccbbbbaaaa"
"aaaabbbbccccddddddddddddddddddddddddddddddddddddddddccccbbbbaaaa"
"aaaabbbbccccddddddddddddddddddddddddddddddddddddddddccccbbbbaaaa"
"aaaabbbbccccddddddddddddddddddddddddddddddddddddddddccccbbbbaaaa"
"aaaabbbbccccddddddddddddddddeeeeeeeeddddddddddddddddccccbbbbaaaa"
"aaaabbbbccccddddddddddddddddeeeeeeeeddddddddddddddddccccbbbbaaaa"
"aaaabbbbccccddddddddddddddddeeeeeeeeddddddddddddddddccccbbbbaaaa"
"aaaabbbbccccddddddddddddddddeeeeeeeeddddddddddddddddccccbbbbaaaa"
"aaaabbbbccccddddddddddddddddeeeeeeeeddddddddddddddddccccbbbbaaaa"
"aaaabbbbccccddddddddddddddddeeeeeeeeddddddddddddddddccccbbbbaaaa"
"aaaabbbbccccddddddddddddddddeeeeeeeeddddddddddddddddccccbbbbaaaa"
"aaaabbbbccccddddddddddddddddeeeeeeeeddddddddddddddddccccbbbbaaaa"
"aaaabbbbccccddddddddddddddddddddddddddddddddddddddddccccbbbbaaaa"
"aaaabbbbccccddddddddddddddddddddddddddddddddddddddddccccbbbbaaaa"
"aaaabbbbccccddddddddddddddddddddddddddddddddddddddddccccbbbbaaaa"
"aaaabbbbccccddddddddddddddddddddddddddddddddddddddddccccbbbbaaaa"
"aaaabbbbccccddddddddddddddddddddddddddddddddddddddddccccbbbbaaaa"
"aaaabbbbccccddddddddddddddddddddddddddddddddddddddddccccbbbbaaaa"
"aaaabbbbccccddddddddddddddddddddddddddddddddddddddddccccbbbbaaaa"
"aaaabbbbccccddddddddddddddddddddddddddddddddddddddddccccbbbbaaaa"
"aaaabbbbccccddddddddddddddddddddddddddddddddddddddddccccbbbbaaaa"
"aaaabbbbccccddddddddddddddddddddddddddddddddddddddddccccbbbbaaaa"
"aaaabbbbccccddddddddddddddddddddddddddddddddddddddddccccbbbbaaaa"
"aaaabbbbccccddddddddddddddddddddddddddddddddddddddddccccbbbbaaaa"
"aaaabbbbccccddddddddddddddddddddddddddddddddddddddddccccbbbbaaaa"
"aaaabbbbccccddddddddddddddddddddddddddddddddddddddddccccbbbbaaaa"
"aaaabbbbccccddddddddddddddddddddddddddddddddddddddddccccbbbbaaaa"
"aaaabbbbccccddddddddddddddddddddddddddddddddddddddddccccbbbbaaaa"
"aaaabbbbbbbbbbbbbbbbbbbbbbbbbbbbbbbbbbbbbbbbbbbbbbbbbbbbbbbbaaaa"
"aaaabbbbbbbbbbbbbbbbbbbbbbbbbbbbbbbbbbbbbbbbbbbbbbbbbbbbbbbbaaaa"
"aaaabbbbbbbbbbbbbbbbbbbbbbbbbbbbbbbbbbbbbbbbbbbbbbbbbbbbbbbbaaaa"
"aaaabbbbbbbbbbbbbbbbbbbbbbbbbbbbbbbbbbbbbbbbbbbbbbbbbbbbbbbbaaaa"
"aaaaaaaaaaaaaaaabbbbbbbbbbbbaaaaaaaabbbbbbbbbbbbaaaaaaaaaaaaaaaa"
"aaaaaaaaaaaaaaaabbbbbbbbbbbbaaaaaaaabbbbbbbbbbbbaaaaaaaaaaaaaaaa"
"aaaaaaaaaaaaaaaabbbbbbbbbbbbaaaaaaaabbbbbbbbbbbbaaaaaaaaaaaaaaaa"
"aaaaaaaaaaaaaaaabbbbbbbbbbbbaaaaaaaabbbbbbbbbbbbaaaaaaaaaaaaaaaa"
"aaaaaaaaaaaaaaaabbbbbbbbbbbbaaaaaaaabbbbbbbbbbbbaaaaaaaaaaaaaaaa"
"aaaaaaaaaaaaaaaabbbbbbbbbbbbaaaaaaaabbbbbbbbbbbbaaaaaaaaaaaaaaaa"
"aaaaaaaaaaaaaaaabbbbbbbbbbbbaaaaaaaabbbbbbbbbbbbaaaaaaaaaaaaaaaa"
"aaaaaaaaaaaaaaaabbbbbbbbbbbbaaaaaaaabbbbbbbbbbbbaaaaaaaaaaaaaaaa"
"aaaaaaaaaaaaaaaabbbbbbbbbbbbaaaaaaaabbbbbbbbbbbbaaaaaaaaaaaaaaaa"
"aaaaaaaaaaaaaaaabbbbbbbbbbbbaaaaaaaabbbbbbbbbbbbaaaaaaaaaaaaaaaa"
"aaaaaaaaaaaaaaaabbbbbbbbbbbbaaaaaaaabbbbbbbbbbbbaaaaaaaaaaaaaaaa"
"aaaaaaaaaaaaaaaabbbbbbbbbbbbaaaaaaaabbbbbbbbbbbbaaaaaaaaaaaaaaaa"
};