/* XPM */
static char	*floor_xpm[] = {
"64 64 2 1"
"a	c #2C190C"
"b	c #3E2612"
"aaaabbbbaaaaaaaabbbbaaaaaaaaaaaabbbbaaaaaaaaaaaabbbbaaaaaaaaaaaa"
"aaaabbbbaaaaaaaabbbbaaaaaaaaaaaabbbbaaaaaaaaaaaabbbbaaaaaaaaaaaa"
"aaaabbbbaaaaaaaabbbbaaaaaaaaaaaabbbbaaaaaaaaaaaabbbbaaaaaaaaaaaa"
"aaaabbbbaaaaaaaabbbbaaaaaaaaaaaabbbbaaaaaaaaaaaabbbbaaaaaaaaaaaa"
"bbbbbbbbbbbbbbbbbbbbbbbbbbbbbbbbbbbbbbbbbbbbbbbbbbbbbbbbbbbbbbbb"
"bbbbbbbbbbbbbbbbbbbbbbbbbbbbbbbbbbbbbbbbbbbbbbbbbbbbbbbbbbbbbbbb"
"bbbbbbbbbbbbbbbbbbbbbbbbbbbbbbbbbbbbbbbbbbbbbbbbbbbbbbbbbbbbbbbb"
"bbbbbbbbbbbbbbbbbbbbbbbbbbbbbbbbbbbbbbbbbbbbbbbbbbbbbbbbbbbbbbbb"
"aaaaaaaaaaaabbbbaaaaaaaaaaaabbbbaaaaaaaaaaaabbbbaaaaaaaaaaaaaaaa"
"aaaaaaaaaaaabbbbaaaaaaaaaaaabbbbaaaaaaaaaaaabbbbaaaaaaaaaaaaaaaa"
"aaaaaaaaaaaabbbbaaaaaaaaaaaabbbbaaaaaaaaaaaabbbbaaaaaaaaaaaaaaaa"
"aaaaaaaaaaaabbbbaaaaaaaaaaaabbbbaaaaaaaaaaaabbbbaaaaaaaaaaaaaaaa"
"bbbbbbbbbbbbbbbbbbbbbbbbbbbbbbbbbbbbbbbbbbbbbbbbbbbbbbbbbbbbbbbb"
"bbbbbbbbbbbbbbbbbbbbbbbbbbbbbbbbbbbbbbbbbbbbbbbbbbbbbbbbbbbbbbbb"
"bbbbbbbbbbbbbbbbbbbbbbbbbbbbbbbbbbbbbbbbbbbbbbbbbbbbbbbbbbbbbbbb"
"bbbbbbbbbbbbbbbbbbbbbbbbbbbbbbbbbbbbbbbbbbbbbbbbbbbbbbbbbbbbbbbb"
"aaaabbbbaaaaaaaabbbbaaaaaaaaaaaabbbbaaaaaaaaaaaabbbbaaaaaaaaaaaa"
"aaaabbbbaaaaaaaabbbbaaaaaaaaaaaabbbbaaaaaaaaaaaabbbbaaaaaaaaaaaa"
"aaaabbbbaaaaaaaabbbbaaaaaaaaaaaabbbbaaaaaaaaaaaabbbbaaaaaaaaaaaa"
"aaaabbbbaaaaaaaabbbbaaaaaaaaaaaabbbbaaaaaaaaaaaabbbbaaaaaaaaaaaa"
"bbbbbbbbbbbbbbbbbbbbbbbbbbbbbbbbbbbbbbbbbbbbbbbbbbbbbbbbbbbbbbbb"
"bbbbbbbbbbbbbbbbbbbbbbbbbbbbbbbbbbbbbbbbbbbbbbbbbbbbbbbbbbbbbbbb"
"bbbbbbbbbbbbbbbbbbbbbbbbbbbbbbbbbbbbbbbbbbbbbbbbbbbbbbbbbbbbbbbb"
"bbbbbbbbbbbbbbbbbbbbbbbbbbbbbbbbbbbbbbbbbbbbbbbbbbbbbbbbbbbbbbbb"
"aaaaaaaaaaaabbbbaaaaaaaaaaaabbbbaaaaaaaaaaaabbbbaaaaaaaaaaaaaaaa"
"aaaaaaaaaaaabbbbaaaaaaaaaaaabbbbaaaaaaaaaaaabbbbaaaaaaaaaaaaaaaa"
"aaaaaaaaaaaabbbbaaaaaaaaaaaabbbbaaaaaaaaaaaabbbbaaaaaaaaaaaaaaaa"
"aaaaaaaaaaaabbbbaaaaaaaaaaaabbbbaaaaaaaaaaaabbbbaaaaaaaaaaaaaaaa"
"bbbbbbbbbbbbbbbbbbbbbbbbbbbbbbbbbbbbbbbbbbbbbbbbbbbbbbbbbbbbbbbb"
"bbbbbbbbbbbbbbbbbbbbbbbbbbbbbbbbbbbbbbbbbbbbbbbbbbbbbbbbbbbbbbbb"
"bbbbbbbbbbbbbbbbbbbbbbbbbbbbbbbbbbbbbbbbbbbbbbbbbbbbbbbbbbbbbbbb"
"bbbbbbbbbbbbbbbbbbbbbbbbbbbbbbbbbbbbbbbbbbbbbbbbbbbbbbbbbbbbbbbb"
"aaaabbbbaaaaaaaabbbbaaaaaaaaaaaabbbbaaaaaaaaaaaabbbbaaaaaaaaaaaa"
"aaaabbbbaaaaaaaabbbbaaaaaaaaaaaabbbbaaaaaaaaaaaabbbbaaaaaaaaaaaa"
"aaaabbbbaaaaaaaabbbbaaaaaaaaaaaabbbbaaaaaaaaaaaabbbbaaaaaaaaaaaa"
"aaaabbbbaaaaaaaabbbbaaaaaaaaaaaabbbbaaaaaaaaaaaabbbbaaaaaaaaaaaa"
"bbbbbbbbbbbbbbbbbbbbbbbbbbbbbbbbbbbbbbbbbbbbbbbbbbbbbbbbbbbbbbbb"
"bbbbbbbbbbbbbbbbbbbbbbbbbbbbbbbbbbbbbbbbbbbbbbbbbbbbbbbbbbbbbbbb"
"bbbbbbbbbbbbbbbbbbbbbbbbbbbbbbbbbbbbbbbbbbbbbbbbbbbbbbbbbbbbbbbb"
"bbbbbbbbbbbbbbbbbbbbbbbbbbbbbbbbbbbbbbbbbbbbbbbbbbbbbbbbbbbbbbbb"
"aaaaaaaaaaaabbbbaaaaaaaaaaaabbbbaaaaaaaaaaaabbbbaaaaaaaaaaaaaaaa"
"aaaaaaaaaaaabbbbaaaaaaaaaaaabbbbaaaaaaaaaaaabbbbaaaaaaaaaaaaaaaa"
"aaaaaaaaaaaabbbbaaaaaaaaaaaabbbbaaaaaaaaaaaabbbbaaaaaaaaaaaaaaaa"
"aaaaaaaaaaaabbbbaaaaaaaaaaaabbbbaaaaaaaaaaaabbbbaaaaaaaaaaaaaaaa"
"bbbbbbbbbbbbbbbbbbbbbbbbbbbbbbbbbbbbbbbbbbbbbbbbbbbbbbbbbbbbbbbb"
"bbbbbbbbbbbbbbbbbbbbbbbbbbbbbbbbbbbbbbbbbbbbbbbbbbbbbbbbbbbbbbbb"
"bbbbbbbbbbbbbbbbbbbbbbbbbbbbbbbbbbbbbbbbbbbbbbbbbbbbbbbbbbbbbbbb"
"bbbbbbbbbbbbbbbbbbbbbbbbbbbbbbbbbbbbbbbbbbbbbbbbbbbbbbbbbbbbbbbb"
"aaaabbbbaaaaaaaabbbbaaaaaaaaaaaabbbbaaaaaaaaaaaabbbbaaaaaaaaaaaa"
"aaaabbbbaaaaaaaabbbbaaaaaaaaaaaabbbbaaaaaaaaaaaabbbbaaaaaaaaaaaa"
"aaaabbbbaaaaaaaabbbbaaaaaaaaaaaabbbbaaaaaaaaaaaabbbbaaaaaaaaaaaa"
"aaaabbbbaaaaaaaabbbbaaaaaaaaaaaabbbbaaaaaaaaaaaabbbbaaaaaaaaaaaa"
"bbbbbbbbbbbbbbbbbbbbbbbbbbbbbbbbbbbbbbbbbbbbbbbbbbbbbbbbbbbbbbbb"
"bbbbbbbbbbbbbbbbbbbbbbbbbbbbbbbbbbbbbbbbbbbbbbbbbbbbbbbbbbbbbbbb"
"bbbbbbbbbbbbbbbbbbbbbbbbbbbbbbbbbbbbbbbbbbbbbbbbbbbbbbbbbbbbbbbb"
"bbbbbbbbbbbbbbbbbbbbbbbbbbbbbbbbbbbbbbbbbbbbbbbbbbbbbbbbbbbbbbbb"
"aaaaaaaaaaaabbbbaaaaaaaaaaaabbbbaaaaaaaaaaaabbbbaaaaaaaaaaaaaaaa"
"aaaaaaaaaaaabbbbaaaaaaaaaaaabbbbaaaaaaaaaaaabbbbaaaaaaaaaaaaaaaa"
"aaaaaaaaaaaabbbbaaaaaaaaaaaabbbbaaaaaaaaaaaabbbbaaaaaaaaaaaaaaaa"
"aaaaaaaaaaaabbbbaaaaaaaaaaaabbbbaaaaaaaaaaaabbbbaaaaaaaaaaaaaaaa"
"bbbbbbbbbbbbbbbbbbbbbbbbbbbbbbbbbbbbbbbbbbbbbbbbbbbbbbbbbbbbbbbb"
"bbbbbbbbbbbbbbbbbbbbbbbbbbbbbbbbbbbbbbbbbbbbbbbbbbbbbbbbbbbbbbbb"
"bbbbbbbbbbbbbbbbbbbbbbbbbbbbbbbbbbbbbbbbbbbbbbbbbbbbbbbbbbbbbbbb"
"bbbbbbbbbbbbbbbbbbbbbbbbbbbbbbbbbbbbbbbbbbbbbbbbbbbbbbbbbbbbbbbb"
};