/* XPM */
static char	*player2_xpm[] = {
"64 64 8 1"
"a	c #0C0A16"
"b	c #26190C"
"c	c #412D16"
"d	c #E4BC8C"
"e	c #C69E6E"
"f	c #D2DCFF"
"g	c #191928"
"h	c #2D2D44"
"aaaaaaaaaaaaaaaabbbbbbbbbbbbbbbbbbbbbbbbbbbbbbbbaaaaaaaaaaaaaaaa"
"aaaaaaaaaaaaaaaabbbbbbbbbbbbbbbbbbbbbbbbbbbbbbbbaaaaaaaaaaaaaaaa"
"aaaaaaaaaaaaaaaabbbbbbbbbbbbbbbbbbbbbbbbbbbbbbbbaaaaaaaaaaaaaaaa"
"aaaaaaaaaaaaaaaabbbbbbbbbbbbbbbbbbbbbbbbbbbbbbbbaaaaaaaaaaaaaaaa"
"aaaaaaaaaaaabbbbbbbbccccbbbbbbbbbbbbccccbbbbbbbbbbbbaaaaaaaaaaaa"
"aaaaaaaaaaaabbbbbbbbccccbbbbbbbbbbbbccccbbbbbbbbbbbbaaaaaaaaaaaa"
"aaaaaaaaaaaabbbbbbbbccccbbbbbbbbbbbbccccbbbbbbbbbbbbaaaaaaaaaaaa"
"aaaaaaaaaaaabbbbbbbbccccbbbbbbbbbbbbccccbbbbbbbbbbbbaaaaaaaaaaaa"
"aaaaaaaabbbbbbbbbbbbbbbbccccbbbbbbbbccccbbbbbbbbbbbbbbbbaaaaaaaa"
"aaaaaaaabbbbbbbbbbbbbbbbccccbbbbbbbbccccbbbbbbbbbbbbbbbbaaaaaaaa"
"aaaaaaaabbbbbbbbbbbbbbbbccccbbbbbbbbccccbbbbbbbbbbbbbbbbaaaaaaaa"
"aaaaaaaabbbbbbbbbbbbbbbbccccbbbbbbbbccccbbbbbbbbbbbbbbbbaaaaaaaa"
"aaaaaaaabbbbbbbbddddddddddddddddddddddddddddddddbbbbccccaaaaaaaa"
"aaaaaaaabbbbbbbbddddddddddddddddddddddddddddddddbbbbccccaaaaaaaa"
"aaaaaaaabbbbbbbbddddddddddddddddddddddddddddddddbbbbccccaaaaaaaa"
"aaaaaaaabbbbbbbbddddddddddddddddddddddddddddddddbbbbccccaaaaaaaa"
"aaaaaaaabbbbbbbbddddddddddddddddddddddddddddddddbbbbccccaaaaaaaa"
"aaaaaaaabbbbbbbbddddddddddddddddddddddddddddddddbbbbccccaaaaaaaa"
"aaaaaaaabbbbbbbbddddddddddddddddddddddddddddddddbbbbccccaaaaaaaa"
"aaaaaaaabbbbbbbbddddddddddddddddddddddddddddddddbbbbccccaaaaaaaa"
"aaaaaaaabbbbbbbbeeeeffffddddddddddddddddffffeeeebbbbccccaaaaaaaa"
"aaaaaaaabbbbbbbbeeeeffffddddddddddddddddffffeeeebbbbccccaaaaaaaa"
"aaaaaaaabbbbbbbbeeeeffffddddddddddddddddffffeeeebbbbccccaaaaaaaa"
"aaaaaaaabbbbbbbbeeeeffffddddddddddddddddffffeeeebbbbccccaaaaaaaa"
"aaaaaaaabbbbbbbbddddddddddddddddddddddddddddddddbbbbccccaaaaaaaa"
"aaaaaaaabbbbbbbbddddddddddddddddddddddddddddddddbbbbccccaaaaaaaa"
"aaaaaaaabbbbbbbbddddddddddddddddddddddddddddddddbbbbccccaaaaaaaa"
"aaaaaaaabbbbbbbbddddddddddddddddddddddddddddddddbbbbccccaaaaaaaa"
"aaaaaaaabbbbbbbbddddddddddddddddddddddddddddddddbbbbccccaaaaaaaa"
"aaaaaaaabbbbbbbbddddddddddddddddddddddddddddddddbbbbccccaaaaaaaa"
"aaaaaaaabbbbbbbbddddddddddddddddddddddddddddddddbbbbccccaaaaaaaa"
"aaaaaaaabbbbbbbbddddddddddddddddddddddddddddddddbbbbccccaaaaaaaa"
"aaaaaaaaaaaabbbbbbbbbbbbbbbbbbbbbbbbbbbbbbbbccccbbbbaaaaaaaaaaaa"
"aaaaaaaaaaaabbbbbbbbbbbbbbbbbbbbbbbbbbbbbbbbccccbbbbaaaaaaaaaaaa"
"aaaaaaaaaaaabbbbbbbbbbbbbbbbbbbbbbbbbbbbbbbbccccbbbbaaaaaaaaaaaa"
"aaaaaaaaaaaabbbbbbbbbbbbbbbbbbbbbbbbbbbbbbbbccccbbbbaaaaaaaaaaaa"
"aaaaaaaaaaaaaaaagggggggghhhhgggggggggggggggghhhhaaaaaaaaaaaaaaaa"
"aaaaaaaaaaaaaaaagggggggghhhhgggggggggggggggghhhhaaaaaaaaaaaaaaaa"
"aaaaaaaaaaaaaaaagggggggghhhhgggggggggggggggghhhhaaaaaaaaaaaaaaaa"
"aaaaaaaaaaaaaaaagggggggghhhhgggggggggggggggghhhhaaaaaaaaaaaaaaaa"
"aaaaaaaagggggggggggggggggggggggggggggggggggggggggggghhhhaaaaaaaa"
"aaaaaaaagggggggggggggggggggggggggggggggggggggggggggghhhhaaaaaaaa"
"aaaaaaaagggggggggggggggggggggggggggggggggggggggggggghhhhaaaaaaaa"
"aaaaaaaagggggggggggggggggggggggggggggggggggggggggggghhhhaaaaaaaa"
"aaaahhhhggggaaaaggggggggggggggggggggggggggggggggaaaagggghhhhaaaa"
"aaaahhhhggggaaaaggggggggggggggggggggggggggggggggaaaagggghhhhaaaa"
"aaaahhhhggggaaaaggggggggggggggggggggggggggggggggaaaagggghhhhaaaa"
"aaaahhhhggggaaaaggggggggggggggggggggggggggggggggaaaagggghhhhaaaa"
"aaaaggggggggaaaaggggggggggggggggggggggggggggggggaaaaggggggggaaaa"
"aaaaggggggggaaaaggggggggggggggggggggggggggggggggaaaaggggggggaaaa"
"aaaaggggggggaaaaggggggggggggggggggggggggggggggggaaaaggggggggaaaa"
"aaaaggggggggaaaaggggggggggggggggggggggggggggggggaaaaggggggggaaaa"
"aaaaaaaaaaaaaaaagggggggggggggggggggggggggggggggghhhhaaaaaaaaaaaa"
"aaaaaaaaaaaaaaaagggggggggggggggggggggggggggggggghhhhaaaaaaaaaaaa"
"aaaaaaaaaaaaaaaagggggggggggggggggggggggggggggggghhhhaaaaaaaaaaaa"
"aaaaaaaaaaaaaaaagggggggggggggggggggggggggggggggghhhhaaaaaaaaaaaa"
"aaaaaaaaaaaaaaaagggggggggggggggggggggggggggggggghhhhaaaaaaaaaaaa"
"aaaaaaaaaaaaaaaagggggggggggggggggggggggggggggggghhhhaaaaaaaaaaaa"
"aaaaaaaaaaaaaaaagggggggggggggggggggggggggggggggghhhhaaaaaaaaaaaa"
"aaaaaaaaaaaaaaaagggggggggggggggggggggggggggggggghhhhaaaaaaaaaaaa"
"aaaaaaaaaaaaaaaagggggggghhhhgggggggggggggggghhhhaaaaaaaaaaaaaaaa"
"aaaaaaaaaaaaaaaagggggggghhhhgggggggggggggggghhhhaaaaaaaaaaaaaaaa"
"aaaaaaaaaaaaaaaagggggggghhhhgggggggggggggggghhhhaaaaaaaaaaaaaaaa"
"aaaaaaaaaaaaaaaagggggggghhhhgggggggggggggggghhhhaaaaaaaaaaaaaaaa"
};