/* XPM */
static char	*wall_xpm[] = {
"64 64 2 1"
"a	c #1A1A2E"
"b	c #16213E"
"aaaaaaaaaaaaaaaaaaaaaaaaaaaaaaaaaaaaaaaaaaaaaaaaaaaaaaaaaaaaaaaa"
"aaaaaaaaaaaaaaaaaaaaaaaaaaaaaaaaaaaaaaaaaaaaaaaaaaaaaaaaaaaaaaaa"
"aaaaaaaaaaaaaaaaaaaaaaaaaaaaaaaaaaaaaaaaaaaaaaaaaaaaaaaaaaaaaaaa"
"aaaaaaaaaaaaaaaaaaaaaaaaaaaaaaaaaaaaaaaaaaaaaaaaaaaaaaaaaaaaaaaa"
"aaaabbbbbbbbbbbbbbbbbbbbbbbbbbbbaaaabbbbbbbbbbbbbbbbbbbbbbbbaaaa"
"aaaabbbbbbbbbbbbbbbbbbbbbbbbbbbbaaaabbbbbbbbbbbbbbbbbbbbbbbbaaaa"
"aaaabbbbbbbbbbbbbbbbbbbbbbbbbbbbaaaabbbbbbbbbbbbbbbbbbbbbbbbaaaa"
"aaaabbbbbbbbbbbbbbbbbbbbbbbbbbbbaaaabbbbbbbbbbbbbbbbbbbbbbbbaaaa"
"aaaabbbbbbbbbbbbbbbbbbbbbbbbbbbbaaaabbbbbbbbbbbbbbbbbbbbbbbbaaaa"
"aaaabbbbbbbbbbbbbbbbbbbbbbbbbbbbaaaabbbbbbbbbbbbbbbbbbbbbbbbaaaa"
"aaaabbbbbbbbbbbbbbbbbbbbbbbbbbbbaaaabbbbbbbbbbbbbbbbbbbbbbbbaaaa"
"aaaabbbbbbbbbbbbbbbbbbbbbbbbbbbbaaaabbbbbbbbbbbbbbbbbbbbbbbbaaaa"
"aaaaaaaaaaaaaaaaaaaaaaaaaaaaaaaaaaaaaaaaaaaaaaaaaaaaaaaaaaaaaaaa"
"aaaaaaaaaaaaaaaaaaaaaaaaaaaaaaaaaaaaaaaaaaaaaaaaaaaaaaaaaaaaaaaa"
"aaaaaaaaaaaaaaaaaaaaaaaaaaaaaaaaaaaaaaaaaaaaaaaaaaaaaaaaaaaaaaaa"
"aaaaaaaaaaaaaaaaaaaaaaaaaaaaaaaaaaaaaaaaaaaaaaaaaaaaaaaaaaaaaaaa"
"aaaabbbbbbbbbbbbaaaabbbbbbbbbbbbbbbbbbbbbbbbbbbbaaaabbbbbbbbaaaa"
"aaaabbbbbbbbbbbbaaaabbbbbbbbbbbbbbbbbbbbbbbbbbbbaaaabbbbbbbbaaaa"
"aaaabbbbbbbbbbbbaaaabbbbbbbbbbbbbbbbbbbbbbbbbbbbaaaabbbbbbbbaaaa"
"aaaabbbbbbbbbbbbaaaabbbbbbbbbbbbbbbbbbbbbbbbbbbbaaaabbbbbbbbaaaa"
"aaaabbbbbbbbbbbbaaaabbbbbbbbbbbbbbbbbbbbbbbbbbbbaaaabbbbbbbbaaaa"
"aaaabbbbbbbbbbbbaaaabbbbbbbbbbbbbbbbbbbbbbbbbbbbaaaabbbbbbbbaaaa"
"aaaabbbbbbbbbbbbaaaabbbbbbbbbbbbbbbbbbbbbbbbbbbbaaaabbbbbbbbaaaa"
"aaaabbbbbbbbbbbbaaaabbbbbbbbbbbbbbbbbbbbbbbbbbbbaaaabbbbbbbbaaaa"
"aaaaaaaaaaaaaaaaaaaaaaaaaaaaaaaaaaaaaaaaaaaaaaaaaaaaaaaaaaaaaaaa"
"aaaaaaaaaaaaaaaaaaaaaaaaaaaaaaaaaaaaaaaaaaaaaaaaaaaaaaaaaaaaaaaa"
"aaaaaaaaaaaaaaaaaaaaaaaaaaaaaaaaaaaaaaaaaaaaaaaaaaaaaaaaaaaaaaaa"
"aaaaaaaaaaaaaaaaaaaaaaaaaaaaaaaaaaaaaaaaaaaaaaaaaaaaaaaaaaaaaaaa"
"aaaabbbbbbbbbbbbbbbbbbbbbbbbbbbbaaaabbbbbbbbbbbbbbbbbbbbbbbbaaaa"
"aaaabbbbbbbbbbbbbbbbbbbbbbbbbbbbaaaabbbbbbbbbbbbbbbbbbbbbbbbaaaa"
"aaaabbbbbbbbbbbbbbbbbbbbbbbbbbbbaaaabbbbbbbbbbbbbbbbbbbbbbbbaaaa"
"aaaabbbbbbbbbbbbbbbbbbbbbbbbbbbbaaaabbbbbbbbbbbbbbbbbbbbbbbbaaaa"
"aaaabbbbbbbbbbbbbbbbbbbbbbbbbbbbaaaabbbbbbbbbbbbbbbbbbbbbbbbaaaa"
"aaaabbbbbbbbbbbbbbbbbbbbbbbbbbbbaaaabbbbbbbbbbbbbbbbbbbbbbbbaaaa"
"aaaabbbbbbbbbbbbbbbbbbbbbbbbbbbbaaaabbbbbbbbbbbbbbbbbbbbbbbbaaaa"
"aaaabbbbbbbbbbbbbbbbbbbbbbbbbbbbaaaabbbbbbbbbbbbbbbbbbbbbbbbaaaa"
"aaaaaaaaaaaaaaaaaaaaaaaaaaaaaaaaaaaaaaaaaaaaaaaaaaaaaaaaaaaaaaaa"
"aaaaaaaaaaaaaaaaaaaaaaaaaaaaaaaaaaaaaaaaaaaaaaaaaaaaaaaaaaaaaaaa"
"aaaaaaaaaaaaaaaaaaaaaaaaaaaaaaaaaaaaaaaaaaaaaaaaaaaaaaaaaaaaaaaa"
"aaaaaaaaaaaaaaaaaaaaaaaaaaaaaaaaaaaaaaaaaaaaaaaaaaaaaaaaaaaaaaaa"
"aaaabbbbbbbbbbbbaaaabbbbbbbbbbbbbbbbbbbbbbbbbbbbaaaabbbbbbbbaaaa"
"aaaabbbbbbbbbbbbaaaabbbbbbbbbbbbbbbbbbbbbbbbbbbbaaaabbbbbbbbaaaa"
"aaaabbbbbbbbbbbbaaaabbbbbbbbbbbbbbbbbbbbbbbbbbbbaaaabbbbbbbbaaaa"
"aaaabbbbbbbbbbbbaaaabbbbbbbbbbbbbbbbbbbbbbbbbbbbaaaabbbbbbbbaaaa"
"aaaabbbbbbbbbbbbaaaabbbbbbbbbbbbbbbbbbbbbbbbbbbbaaaabbbbbbbbaaaa"
"aaaabbbbbbbbbbbbaaaabbbbbbbbbbbbbbbbbbbbbbbbbbbbaaaabbbbbbbbaaaa"
"aaaabbbbbbbbbbbbaaaabbbbbbbbbbbbbbbbbbbbbbbbbbbbaaaabbbbbbbbaaaa"
"aaaabbbbbbbbbbbbaaaabbbbbbbbbbbbbbbbbbbbbbbbbbbbaaaabbbbbbbbaaaa"
"aaaaaaaaaaaaaaaaaaaaaaaaaaaaaaaaaaaaaaaaaaaaaaaaaaaaaaaaaaaaaaaa"
"aaaaaaaaaaaaaaaaaaaaaaaaaaaaaaaaaaaaaaaaaaaaaaaaaaaaaaaaaaaaaaaa"
"aaaaaaaaaaaaaaaaaaaaaaaaaaaaaaaaaaaaaaaaaaaaaaaaaaaaaaaaaaaaaaaa"
"aaaaaaaaaaaaaaaaaaaaaaaaaaaaaaaaaaaaaaaaaaaaaaaaaaaaaaaaaaaaaaaa"
"aaaabbbbbbbbbbbbbbbbbbbbbbbbbbbbaaaabbbbbbbbbbbbbbbbbbbbbbbbaaaa"
"aaaabbbbbbbbbbbbbbbbbbbbbbbbbbbbaaaabbbbbbbbbbbbbbbbbbbbbbbbaaaa"
"aaaabbbbbbbbbbbbbbbbbbbbbbbbbbbbaaaabbbbbbbbbbbbbbbbbbbbbbbbaaaa"
"aaaabbbbbbbbbbbbbbbbbbbbbbbbbbbbaaaabbbbbbbbbbbbbbbbbbbbbbbbaaaa"
"aaaabbbbbbbbbbbbbbbbbbbbbbbbbbbbaaaabbbbbbbbbbbbbbbbbbbbbbbbaaaa"
"aaaabbbbbbbbbbbbbbbbbbbbbbbbbbbbaaaabbbbbbbbbbbbbbbbbbbbbbbbaaaa"
"aaaabbbbbbbbbbbbbbbbbbbbbbbbbbbbaaaabbbbbbbbbbbbbbbbbbbbbbbbaaaa"
"aaaabbbbbbbbbbbbbbbbbbbbbbbbbbbbaaaabbbbbbbbbbbbbbbbbbbbbbbbaaaa"
"aaaaaaaaaaaaaaaaaaaaaaaaaaaaaaaaaaaaaaaaaaaaaaaaaaaaaaaaaaaaaaaa"
"aaaaaaaaaaaaaaaaaaaaaaaaaaaaaaaaaaaaaaaaaaaaaaaaaaaaaaaaaaaaaaaa"
"aaaaaaaaaaaaaaaaaaaaaaaaaaaaaaaaaaaaaaaaaaaaaaaaaaaaaaaaaaaaaaaa"
"aaaaaaaaaaaaaaaaaaaaaaaaaaaaaaaaaaaaaaaaaaaaaaaaaaaaaaaaaaaaaaaa"
};